X:1
T:Mentre l'Aquila
T:Gemignano Capilupi da Modena
T:Source : Canzonette a tre voci di H.Vecchi et di G.Capilupi da Modena---Venetia---Ang.Gardano---1597. Editor : André Vierendeels (15/02/17).
T:Mentre l'Aquila
T:©
T:©
T:©
C:Gemignano Capilupi da Modena
Z:©
%%score [ 1 2 3 ]
L:1/8
Q:1/4=100
M:4/4
K:F
V:1 treble nm="Soprano 1" snm="S 1"
V:2 treble nm="Soprano 2" snm="S 2"
V:3 treble-8 nm="Tenor" snm="T"
V:1
 B4 B2 B2- | BB B2 A2 G2 | d3 c/B/ A2 d2 | f3 g a4- | a2 gf e4 |[M:2/4] d4 ::[M:4/4] z4 d2 de | %7
w: Men- tre l'A-|* qui- l'af- fi- sa|gl'oc- * * * ch'al|so- * *||le,|di- ce mi-|
w: Co- si di-|* co i- o fo-|ven- * * * te|co'l pen- sie-||ro,|ar- da- mi|
 f2 c2 d3 c | B2 c2 A4 |"^-natural" G4 g2 fe | f2 g2 e2 f2 |"^-natural" d2 e2 c3 d | B4 A2 G2- | %13
w: ran- do nel ce-|le- ste lu-|me, pur che ne|go- dan gl'oc- ch'ar-|dan le piu- *|* me, ar-|
w: de be- gl'oc- ch'il|vo- vo'ar- do-|re, pur ch'al- ta|men- te hab- bia|lo- ca- to il|co- re, lo-|
 GG G2 ^F4 | G4 z4 | z4 g2 fe | f2 d2 e2 c2 | d2 B2 c2 BA | B2 c2 d4 | g2 fe f2 d2 | f2 _e2 d2 B2 | %21
w: * dan le piu-|me,|pur che ne|go- dan gl'oc- ch'ar-|dan le piu- * *|* * me,|pur che ne go- dan|gl'oc- ch'ar- dan le|
w: * ca- to'il co-|re,|pur ch'al- ta-|men- te hab- bi-|a lo- ca- to il|co- * re,|pur ch'al- ta- men- te'hab-|bia lo- ca- to'il|
 A4 !fermata!G4 |] %22
w: piu- me.|
w: co- re.|
V:2
 z2 G2 G2 G2- | GG G2 F2 B2 | Bcde f2 F2 | A3 B cA d2 | ^c2 d4 c2 |[M:2/4] d4 ::[M:4/4] B2 Bc d4- | %7
w: Men- tre l'A-|* qui- l'af- fi- sa|gl'oc- * * * * ch'al|so- * * * *||le,|di- ce mi- ran-|
w: Ne mi cu-|* ro che'l mon- do|mi _ _ _ _ ri-|pren- * * * *||da,|del mio so- ver-|
 d2 c2 B2 A2 | G2 G2 ^F4 | G8 | z2 d2 c4 | B4 A4 | G4 ^F2 d2 | c3 B A4 |"^-natural" G4 g2 fe | %15
w: * do nel ce-|le- ste lu-|me,|pur che|ne go-|dan gl'oc- ch'ar-|dan le piu-|me, pur che ne|
w: * ch'io'ar- dir, ch'ad|alt' im- pre-|sa,|non fu|mai vi-|sta'un' hu- mil|vo- gli'ac- ce-|se, non fu mai|
 f2 d2 e2 c2 | d2 B2 c2 BA | Bcde f2 c2 |"^b" g2 fe f2 d2 | _e2 c2 d2 B2 | d2 cB A2 G2- | %21
w: go- dan gl'oc- ch'ar-|dan le piu- * *|* * * * * me,|pur che ne go- dan|gl'oc- ch'ar- dan le|piu- * * * *|
w: vi- sta'un' hu- mil|vo- gli'ac- ce- * *|* * * * * sa,|non fu mai vi- sta'un'|hu- mil vo- gli'ac-|ce- * * * *|
 G2 ^F2 !fermata!G4 |] %22
w: * * me.|
w: * * sa.|
V:3
 G4 G2 G2- | GG G2 D2 G2 | GABc d4- | d2 cB A2 D2 | A8 |[M:2/4] D4 ::[M:4/4] G2 GA B4- | %7
w: Men- tre l'A-|* qui- l'af- fi- sa|gl'oc- * * * *|* * * * ch'al|so-|le,|di- ce mi- ran-|
w: E se pog-|* gian- do'in al- to'io|ca- * * * *|* * * * do'e|pe-|ro,|lo spir- to di|
w: |||||||
 B2 A2 G2 F2 | _E2 C2 D4 | G8 | d2 cB c2 A2 | B2 G2 A2 F2 | GABc d2 B2 |"^-natural" c2 c2 d4 | G8 | %15
w: * do nel ce-|le- ste lu-|me,|pur che ne go- dan|cl'oc- ch'ar- dan le|piu- * * * * m'ar-|dan le piu-|me,|
w: _ pie- tà po-|trà ben di-|re,|la vi- ta ven- ne|men, ma non l'ar-|di- * * * * *||re,|
w: ||||||||
 d4 c4 | B4 A4 |"^b" G4 F4 | _E4 D4 | C4 B,4- | B,2 C2 D4- | D4 !fermata!G,4 |] %22
w: pur che|ne go-|dan gl'oc|ch'ar- dan|le piu-||* me|
w: la vi-|ta ven-|ne men,|ma non|l'ar- di-||* re.|
w: ||||||* .re.|

